X: 012
T: Old Black Joe
S: Viola Ruth "Pioneer Western Folk Tunes" 1948 p.1 #2
R: march
Z: 2019 John Chambers <jc:trillian.mit.edu>
M: C|
L: 1/8
K: G
V: 1 name=" "
B2 |\
G4 B3c | d6 (MdMd) | e2g2 f2e2 | d8 |\
G4 (B3c) | d6 (MdMd) | e2d2 c2B2 | A8 |\
G4 (B3c) | d6 (MdMd) | e2g2 f2e2 | d6 g2 |
f3g a2f2 | g2e2 d2e2 | B4 A4 | G6 d2 ||\
B2d2 z2d2 | B2 d4 (MdMd) | e2g2 f2e2 | d6 g2 |\
f3g a2f2 | g2e2 d2e2 | B4 A4 G4 |]
